src/assets/images/shop-now-outline.svg

<svg viewBox="0 0 884.49 384" xmlns="http://www.w3.org/2000/svg"><g fill="none" stroke="#fff" stroke-miterlimit="10" stroke-width="4"><path d="m44.53 376.91c-30 0-45.24-26.63-40.4-72l7.76-75.44h35.23l-7.12 69.03c-1.62 16.77 1.61 25.15 10.34 25.15s11.31-9.86 13.57-32l1-9.37c3.56-31.07.65-43.39-10.66-75l-9.7-27.12c-12.94-35.51-19.73-60.66-15.55-98.16l1.31-12.3c4.85-47.34 19.39-67.06 45.57-67.06h8.4c28.44 0 41.69 20.22 37.49 61.64l-6.14 59.66h-34.58l5.17-49.8c1.62-15.29-.32-22.14-8.4-22.14s-10.34 7.84-11.63 20.17l-1 9.37c-1.62 19.72 1 29.58 10.34 58.18l9.37 28.6c14.57 46.35 23.3 67.56 19.1 113.91l-1.29 12.82c-5.5 55.72-22.3 81.86-50.74 81.86z"/><path d="m141.16 373h-35.55l38.14-366.91h35.55l-15.19 146.91h23.89l15.21-146.91h35.55l-38.13 366.91h-35.55l16.8-161.24h-23.88z"/><path d="m299.19 2.64c34.59 0 47.51 33 42.34 84.32l-21 203.65c-5.18 50.3-17.13 86.79-49.45 86.79h-6.14c-33.61 0-46.86-35.51-41.69-86.79l21-203.61c5.17-51.28 16.49-84.32 48.8-84.32zm-18.42 81.36-21.65 210.06c-2.26 17.26.32 29.1 10.34 29.1s12.28-11.34 14.55-29.1l21.65-210.06c2.26-19.72-1.94-28.11-10.67-28.11s-11.99 8.88-14.22 28.11z"/><path d="m376.75 221.08-15.51 151.92h-35.55l38.14-366.91h52.35c25.86 0 38.14 19.23 33.94 60.65l-9.05 88.26c-4.2 41.91-15.84 66.07-40.4 66.07zm5.5-53.74h9.69c10.67 0 12.29-8.88 14.55-27.12l6.14-59.67c1.29-13.81.64-25.15-10.67-25.15h-7.75z"/><path d="m533.17 6.09 10.34 200.69 20.68-200.69h32l-38.14 366.91h-29.05l-12-213-22.3 213h-32l38.15-366.91z"/><path d="m656.62 2.64c34.58 0 47.51 33 42.34 84.32l-20.96 203.65c-5.17 50.3-17.13 86.79-49.45 86.79h-6.14c-33.61 0-46.86-35.51-41.69-86.79l20.96-203.61c5.17-51.28 16.48-84.32 48.8-84.32zm-18.42 81.36-21.65 210.06c-2.27 17.26.32 29.1 10.34 29.1s12.28-11.34 14.54-29.1l21.65-210.06c2.27-19.72-1.93-28.11-10.66-28.11s-11.96 8.88-14.22 28.11z"/><path d="m811.42 6.09-8.72 241.62 41-241.62h33.61l-66.21 366.91h-38.78l6.14-211-36.2 211h-38.46l6.47-366.91h35.55l-7.44 234.72 39.76-234.72z"/></g></svg>

<svg xmlns="http://www.w3.org/2000/svg" viewBox="0 0 884.49 384"><defs><style>.a{fill:none;stroke:#fff;stroke-miterlimit:10;stroke-width:4px;}</style></defs><title>shop-now-outline</title><path class="a" d="M44.53,376.91c-30,0-45.24-26.63-40.4-72l7.76-75.44H47.12L40,298.5c-1.62,16.77,1.61,25.15,10.34,25.15s11.31-9.86,13.57-32l1-9.37c3.56-31.07.65-43.39-10.66-75l-9.7-27.12C31.61,144.65,24.82,119.5,29,82l1.31-12.3C35.16,22.36,49.7,2.64,75.88,2.64h8.4c28.44,0,41.69,20.22,37.49,61.64l-6.14,59.66H81.05l5.17-49.8C87.84,58.85,85.9,52,77.82,52S67.48,59.84,66.19,72.17l-1,9.37c-1.62,19.72,1,29.58,10.34,58.18l9.37,28.6c14.57,46.35,23.3,67.56,19.1,113.91l-1.29,12.82c-5.5,55.72-22.3,81.86-50.74,81.86Z"/><path class="a" d="M141.16,373H105.61L143.75,6.09H179.3L164.11,153H188L203.21,6.09h35.55L200.63,373H165.08l16.8-161.24H158Z"/><path class="a" d="M299.19,2.64c34.59,0,47.51,33,42.34,84.32l-21,203.65c-5.18,50.3-17.13,86.79-49.45,86.79h-6.14c-33.61,0-46.86-35.51-41.69-86.79L244.25,87c5.17-51.28,16.49-84.32,48.8-84.32ZM280.77,84,259.12,294.06c-2.26,17.26.32,29.1,10.34,29.1s12.28-11.34,14.55-29.1L305.66,84c2.26-19.72-1.94-28.11-10.67-28.11S283,64.77,280.77,84Z"/><path class="a" d="M376.75,221.08,361.24,373H325.69L363.83,6.09h52.35c25.86,0,38.14,19.23,33.94,60.65L441.07,155c-4.2,41.91-15.84,66.07-40.4,66.07Zm5.5-53.74h9.69c10.67,0,12.29-8.88,14.55-27.12l6.14-59.67c1.29-13.81.64-25.15-10.67-25.15h-7.75Z"/><path class="a" d="M533.17,6.09l10.34,200.69L564.19,6.09h32L558.05,373H529L517,160,494.7,373h-32L500.85,6.09Z"/><path class="a" d="M656.62,2.64c34.58,0,47.51,33,42.34,84.32L678,290.61c-5.17,50.3-17.13,86.79-49.45,86.79h-6.14c-33.61,0-46.86-35.51-41.69-86.79L601.68,87c5.17-51.28,16.48-84.32,48.8-84.32ZM638.2,84,616.55,294.06c-2.27,17.26.32,29.1,10.34,29.1s12.28-11.34,14.54-29.1L663.08,84c2.27-19.72-1.93-28.11-10.66-28.11S640.46,64.77,638.2,84Z"/><path class="a" d="M811.42,6.09,802.7,247.71l41-241.62h33.61L811.1,373H772.32l6.14-211-36.2,211H703.8L710.27,6.09h35.55l-7.44,234.72L778.14,6.09Z"/></svg>
